assets/icons/header/descubra.svg

<svg preserveAspectRatio="none" width="100%" height="100%" overflow="visible" style="display: block;" viewBox="0 0 24 24" fill="none" xmlns="http://www.w3.org/2000/svg">
<g id="explore">
<mask id="mask0_0_141" style="mask-type:alpha" maskUnits="userSpaceOnUse" x="0" y="0" width="24" height="24">
<rect id="Bounding box" width="24" height="24" fill="var(--fill-0, #D9D9D9)"/>
</mask>
<g mask="url(#mask0_0_141)">
<path id="explore_2" d="M8.64425 15.923L13.3 14.5115C13.5948 14.418 13.8471 14.2664 14.0568 14.0568C14.2664 13.8471 14.418 13.5948 14.5115 13.3L15.925 8.64225C15.9737 8.47308 15.933 8.32408 15.803 8.19525C15.673 8.06642 15.5239 8.027 15.3557 8.077L10.7 9.4885C10.4052 9.582 10.1529 9.73358 9.94325 9.94325C9.73358 10.1529 9.582 10.4052 9.4885 10.7L8.075 15.3577C8.02633 15.5269 8.067 15.6759 8.197 15.8048C8.327 15.9336 8.47608 15.973 8.64425 15.923ZM11.9978 13.3077C11.6339 13.3077 11.3254 13.1803 11.0723 12.9255C10.8189 12.6708 10.6923 12.3616 10.6923 11.9978C10.6923 11.6339 10.8197 11.3254 11.0745 11.0723C11.3292 10.8189 11.6384 10.6923 12.0022 10.6923C12.3661 10.6923 12.6746 10.8197 12.9277 11.0745C13.1811 11.3292 13.3077 11.6384 13.3077 12.0022C13.3077 12.3661 13.1803 12.6746 12.9255 12.9277C12.6708 13.1811 12.3616 13.3077 11.9978 13.3077ZM12.0017 21.5C10.6877 21.5 9.45267 21.2507 8.2965 20.752C7.14033 20.2533 6.13467 19.5766 5.2795 18.7218C4.42433 17.8669 3.74725 16.8617 3.24825 15.706C2.74942 14.5503 2.5 13.3156 2.5 12.0017C2.5 10.6877 2.74933 9.45267 3.248 8.2965C3.74667 7.14033 4.42342 6.13467 5.27825 5.2795C6.13308 4.42433 7.13833 3.74725 8.294 3.24825C9.44967 2.74942 10.6844 2.5 11.9982 2.5C13.3122 2.5 14.5473 2.74933 15.7035 3.248C16.8597 3.74667 17.8653 4.42342 18.7205 5.27825C19.5757 6.13308 20.2528 7.13833 20.7518 8.294C21.2506 9.44967 21.5 10.6844 21.5 11.9982C21.5 13.3122 21.2507 14.5473 20.752 15.7035C20.2533 16.8597 19.5766 17.8653 18.7218 18.7205C17.8669 19.5757 16.8617 20.2528 15.706 20.7518C14.5503 21.2506 13.3156 21.5 12.0017 21.5Z" fill="var(--fill-0, #B0B0B0)"/>
</g>
</g>
</svg>

<svg xmlns="http://www.w3.org/2000/svg" fill="none" overflow="visible" preserveAspectRatio="none" style="display:block" viewBox="0 0 24 24"><mask id="a" width="24" height="24" x="0" y="0" maskUnits="userSpaceOnUse" style="mask-type:alpha"><path fill="var(--fill-0, #d9d9d9)" d="M0 0h24v24H0z"/></mask><g mask="url(#a)"><path fill="var(--fill-0, #b0b0b0)" d="m8.644 15.923 4.656-1.412a1.84 1.84 0 0 0 .757-.454q.315-.315.454-.757l1.414-4.658a.43.43 0 0 0-.122-.447.43.43 0 0 0-.447-.118L10.7 9.489a1.84 1.84 0 0 0-.757.454q-.315.315-.454.757l-1.414 4.658a.43.43 0 0 0 .122.447q.196.193.447.118m3.354-2.615q-.546 0-.926-.383a1.27 1.27 0 0 1-.38-.927q0-.546.383-.926.381-.38.927-.38t.926.383q.38.381.38.927t-.383.926q-.381.38-.927.38m.004 8.192a9.3 9.3 0 0 1-3.706-.748 9.6 9.6 0 0 1-3.016-2.03 9.6 9.6 0 0 1-2.032-3.016 9.25 9.25 0 0 1-.748-3.704q0-1.972.748-3.706a9.6 9.6 0 0 1 2.03-3.016 9.6 9.6 0 0 1 3.016-2.032 9.25 9.25 0 0 1 3.704-.748q1.971 0 3.706.748a9.6 9.6 0 0 1 3.017 2.03 9.6 9.6 0 0 1 2.03 3.016 9.25 9.25 0 0 1 .749 3.704q0 1.971-.748 3.706a9.6 9.6 0 0 1-2.03 3.017 9.6 9.6 0 0 1-3.016 2.03 9.25 9.25 0 0 1-3.704.749"/></g></svg>
